X:389
T:B389-  Red Bull
Q:1/4=120
L:1/4
M:6/4
K:Bb
B2Bc2d|B3/2A/BA3|G3F2B|B2AB3::\
d2=df3/2g/f|gaba3/2g/^f|g3d=ef|f2=ef2c|\
A2Bc3/2d/c|fede3|d3c2B|B2A.B3:|]

